X:57
T:Les Barricades Mystérieuses
C:Couperin, F.
M:6/8
L:1/8
Q:3/8=80
K:Bb
|:F|B4 cB|A4 GA|F4 EF|G4 F2|
E4 FG|A4 GF|E2 FG AB|B4:|

